X: 5027
T: Brian Byrne's
R: reel
M: 4/4
K: Dmajor
|:FE|D2 (3 FGA dAFD|~E2 DE FDdc|~B3d AFDF|EdcB AGFE|
D2 (3 FGA dAFD|~E2 DE FDdc|~B3d AFDF|Eddc dD:|
|:de|fA ~A2 FAdf|gB ~B2 Agfe|fddc dAFA|Eddc dDde|
fA ~A2 FAdf|gB ~B2 Agfe|fddc dAFA|Eddc dD:|

